dist/img/projectPage/breadcrumbs__item__icon.svg

<svg width="9" height="9" viewBox="0 0 9 9" fill="none" xmlns="http://www.w3.org/2000/svg">
<mask id="path-1-inside-1_2_8031" fill="white">
<path d="M4.24219 0.514648L8.48483 4.75729L4.24219 8.99993L-0.000453115 4.75729L4.24219 0.514648Z"/>
</mask>
<path d="M8.48483 4.75729L9.19193 5.4644L9.89904 4.75729L9.19193 4.05018L8.48483 4.75729ZM3.53508 1.22176L7.77772 5.4644L9.19193 4.05018L4.94929 -0.192458L3.53508 1.22176ZM7.77772 4.05018L3.53508 8.29282L4.94929 9.70704L9.19193 5.4644L7.77772 4.05018Z" fill="#0055B6" fill-opacity="0.5" mask="url(#path-1-inside-1_2_8031)"/>
</svg>

<svg width="9" height="9" viewBox="0 0 9 9" fill="none" xmlns="http://www.w3.org/2000/svg"><mask id="path-1-inside-1_2_8031" fill="#fff"><path d="M4.242.515l4.243 4.242L4.242 9 0 4.757 4.242.515z"/></mask><path d="M8.485 4.757l.707.707.707-.707-.707-.707-.707.707zm-4.95-3.535l4.243 4.242L9.192 4.05 4.949-.192 3.535 1.222zM7.778 4.05L3.535 8.293 4.95 9.707l4.243-4.243L7.778 4.05z" fill="#0055B6" fill-opacity=".5" mask="url(#path-1-inside-1_2_8031)"/></svg>
